resources/haticons/SVG/zendesk.svg

<!-- Generated by IcoMoon.io -->
<svg version="1.1" xmlns="http://www.w3.org/2000/svg" width="24" height="24" viewBox="0 0 24 24">
<title>zendesk</title>
<path d="M11.085 21.095h-11.085l11.085-13.383v13.383zM24 21.095h-11.085c0-3.063 2.479-5.543 5.543-5.543s5.542 2.482 5.542 5.543zM12.915 16.291v-13.386h11.085l-11.085 13.386zM11.085 2.905c0 3.061-2.481 5.544-5.543 5.544-3.060 0-5.542-2.481-5.542-5.542l11.085-0.002z"></path>
</svg>

<svg xmlns="http://www.w3.org/2000/svg" width="24" height="24"><path d="M11.085 21.095H0L11.085 7.712v13.383zm12.915 0H12.915c0-3.063 2.479-5.543 5.543-5.543S24 18.034 24 21.095zm-11.085-4.804V2.905H24L12.915 16.291zm-1.83-13.386A5.544 5.544 0 0 1 0 2.907l11.085-.002z"/></svg>
